X: 1566
T: Penceresi Yola Karşı
C: Rüştü Eriç
O: Turkey
F: http://compmusic.upf.edu/node/140
N: nikriz--turku--aksak--penceresi_yola--
N: makam= nikriz
N: form= turku
N: usul= aksak = 9/8
M: 9/8
L: 1/16
K: C _7/8B ^3/4f ^c 
Q: 1/4=240
%%MIDI tuningsystem comma53
d4 {e}d2c2 B2A2 B2A2 G2 | A4{c}B2 A2G4d6  | \
w:  ARANAĞME  |   | 
d3e .d2.c2 B2A2 B2{c}A2 G2 | 
w:   | 
A4{c}B2 A2G2 F2G4z2  | d4 {e}d2c2 B2A2 B2A2 G2 | \
w:   |  ARANAĞME  | 
A4{c}B2 A2G4d6  | d3e .d2.c2 B2A2 B2{c}A2 G2 | 
w:   |   | 
A4{c}B2 A2G2 F2G4z2  | d4 d4 e4 d6 | \
w:   |  Pen ce re si   | 
g4g4g2 =f2e4d2  | d4 d4 e4 d6 | 
w:  yo la  kar *  şı    |  Pen ce re si   | 
g2 g4 a2g2 =f2e4d2  | d4 {e}d2c2 B2A2 B2A2 G2 | \
w:  yo la  *  kar *  şı    |  Ge *  len  *  ge *  çen   | 
A4B2 A2G4d6  | d4 {e}d2c2 B2A2 B2A2 G2 | 
w:  a tar  *  ta şı    |  Ge *  len  *  ge *  çen   | 
A2 B4 A2G2 F2G4z2  | d4 d4 e4 d6 | g4g4g2 =f2e4d2  | \
w:  a tar  *  ta *  şı    |  Be nim  yâ rim   |  ka lem  kaş *  lı    | 
d4 d4 e4 d6 | 
w:  Be nim  yâ rim   | 
g2 g4 a2g2 =f2e4d2  | d4 {e}d2c2 B2A2 B2A2 G2 | \
w:  ka lem  *  kaş *  lı    |  Var  *  a ra  e *  şi ni   | 
A4{c}B2 A2G4d6  | d4 {e}d2c2 B2A2 B2A2 G2 | 
w:  e *  şi ni  vay  vay    |  Say *  sa na  li ra la rın   | 
A4{c}B2 A2G2 F2G6  | d4 {e}d2c2 B2A2 B2A2 G2 | \
w:  be *  şi ni  vay  *  vay    |  Var  *  a ra  e *  şi ni   | 
A4{c}B2 A2G4d6  | d4 {e}d2c2 B2A2 B2A2 G2 | 
w:  e *  şi ni  vay  vay    |  Say *  sa na  li ra la rın   | 
A4{c}B2 A2G2 F2G6  | d4 {e}d2c2 B2A2 B2A2 G2 | \
w:  be *  şi ni  vay  *  vay    |  ARANAĞME  | 
A4{c}B2 A2G4d6  | d3e .d2.c2 B2A2 B2{c}A2 G2 | 
w:   |   | 
A4{c}B2 A2G2 F2G4z2  | d4 {e}d2c2 B2A2 B2A2 G2 | \
w:   |  ARANAĞME  | 
A4{c}B2 A2G4d6  | d3e .d2.c2 B2A2 B2{c}A2 G2 | 
w:   |   | 
A4{c}B2 A2G2 F2G4z2  | d4 d4 e4 d6 | \
w:   |  Pen ce re si   | 
g4g4g2 =f2e4d2  | d4 d4 e4 d6 | 
w:  yo la  kar *  şı    |  Pen ce re si   | 
g2 g4 a2g2 =f2e4d2  | d4 {e}d2c2 B2A2 B2A2 G2 | \
w:  yo la  *  kar *  şı    |  Ge *  len  *  ge *  çen   | 
A4B2 A2G4d6  | d4 {e}d2c2 B2A2 B2A2 G2 | 
w:  a tar  *  ta şı    |  Ge *  len  *  ge *  çen   | 
A2 B4 A2G2 F2G4z2  | d4 d4 e4 d6 | g4g4g2 =f2e4d2  | \
w:  a tar  *  ta *  şı    |  Be nim  yâ rim   |  ka lem  kaş *  lı    | 
d4 d4 e4 d6 | 
w:  Be nim  yâ rim   | 
g2 g4 a2g2 =f2e4d2  | d4 {e}d2c2 B2A2 B2A2 G2 | \
w:  ka lem  *  kaş *  lı    |  Var  *  a ra  e *  şi ni   | 
A4{c}B2 A2G4d6  | d4 {e}d2c2 B2A2 B2A2 G2 | 
w:  e *  şi ni  vay  vay    |  Say *  sa na  li ra la rın   | 
A4{c}B2 A2G2 F2G6  | d4 {e}d2c2 B2A2 B2A2 G2 | \
w:  be *  şi ni  vay  *  vay    |  Var  *  a ra  e *  şi ni   | 
A4{c}B2 A2G4d6  | d4 {e}d2c2 B2A2 B2A2 G2 | 
w:  e *  şi ni  vay  vay    |  Say *  sa na  li ra la rın   | 
A4{c}B2 A2G2 F2G6  | |


